!!!Genre:	Nign
!!!Mode:	Minor
!!!Listening/dance:	listening
!!!One_Mode:	yes
**kern
*thru
*I"P1
*clefG2
*k[b-e-]
*g:
*M2/4
*>A
=1
8dL
16gL
16gJJ
8gL
8gJ
=2
4dd
4b-
=3
16ccLL
16ddJ
8ccJ
8b-L
8aJ
=4
2g
=5
(16b-LL
16ccJ)
8b-J
8gL
8b-J
=6
16ccLL
16ddJ
8ccJ
8b-L
8ccJ
=7
2dd
=8
2gg
=9
8dL
16gL
16gJJ
8gL
8gJ
=10
4dd
4b-
=11
16ccLL
16ddJ
8ccJ
8b-L
8aJ
=12
4.g
8f
=13
8b-L
8b-
8cc
8ddJ
=14
16ccLL
16ddJ
8ccJ
8b-L
8aJ
=15
2g
=16
2g
=17:|!
*>B
8b-L
8ccJ
16ddLL
16ee-J
8ddJ
=18
16ddLL
16ee-J
8ddJ
16ddLL
16ee-J
8ddJ
=19
4dd
8b-L
8ddJ
=20
4cc
(8qcc/
12b-L)
12a
12gJ
=21
16b-LL
16ccJ
8b-J
8gL
8b-J
=22
16ccLL
16ddJ
8ccJ
8b-L
8ccJ
=23
2dd
=24
2gg
=25
8b-L
8ccJ
16ddLL
16ee-J
8ddJ
=26
16ddLL
16ee-J
8ddJ
16ddLL
16ee-J
8ddJ
=27
4dd
8b-L
8ddJ
=28
4cc
12b-L
12a
12gJ
=29
16b-LL
16ccJ
8b-J
8gL
8b-J
=30
16ccLL
16ddJ
8ccJ
8b-L
8aJ
=31
2g
=32
2g
==
*-
